X: 8
T: The Bear Dance
R: polka
M: 2/4
L: 1/8
K: Amin
eA A2 | eA AB | cc Bc | d2 cd |
ee dd | cc BG | A/B/c B/A/G | A4 :|
A/B/c A/B/c | BG G2 | A/B/c A/B/c | d2 cd |
ee dd | cc BB | A/B/c B/A/G | A2 A2 :|


Tune 4195	Setting 21019

